X:237
T:Gigue back à back
C:Jean Rhéaume
M:6/8
L:1/8
P:ABABC
R:jig
K:Gmaj
D || GBF GBD | GAB d2d | ded cBA | ded cBA |
GBF GBD | GAB d2d | ded cBA |1 G2G G2D :|2 G2G G2B ||
ABA ABA | GFE (3FFF D | ABA GFE | DFA d2A |
ABA AdA | AeA AfA | ABA Aef |1 gfe d2B :|2 gfe d2D ||
GBF GBD | GAB d2d | ded cBA | ded cBA |
GBF GBD | GAB d2d | ded cBA | GBd g3 |]
